assets/images/typescript.svg

<svg width="24" height="24" viewBox="0 0 24 24" fill="none" xmlns="http://www.w3.org/2000/svg">
<path d="M0 12V24H24V0H0V12ZM19.3395 11.043C19.9493 11.1953 20.4135 11.469 20.8433 11.91C21.0623 12.144 21.39 12.5738 21.4177 12.6795C21.4252 12.711 20.3827 13.41 19.7498 13.8007C19.7265 13.8165 19.6327 13.719 19.5308 13.566C19.2225 13.1167 18.8978 12.9217 18.402 12.8865C17.6753 12.8392 17.2065 13.2188 17.2103 13.8555C17.2065 14.0115 17.2418 14.1683 17.3115 14.3048C17.472 14.637 17.7727 14.8358 18.702 15.2385C20.421 15.9765 21.1552 16.4648 21.612 17.1562C22.1235 17.9295 22.2367 19.164 21.8932 20.0858C21.5107 21.0818 20.565 21.7613 19.2367 21.984C18.8265 22.0583 17.85 22.0463 17.4083 21.9645C16.4438 21.7928 15.5295 21.3158 14.967 20.691C14.7442 20.4487 14.3145 19.812 14.3422 19.7692C14.3542 19.7535 14.4518 19.6912 14.5613 19.6283C14.6708 19.5653 15.0728 19.3312 15.4523 19.1122L16.1437 18.7103L16.2885 18.9247C16.4918 19.233 16.9327 19.6553 17.199 19.7955C17.9648 20.202 19.0155 20.1435 19.5353 19.6785C19.746 19.503 19.8638 19.233 19.848 18.96C19.848 18.6825 19.8128 18.558 19.668 18.3503C19.4805 18.0848 19.1017 17.8582 18.0195 17.3895C16.7812 16.854 16.2458 16.5263 15.762 15.999C15.4575 15.651 15.231 15.2415 15.102 14.7997C15.012 14.46 14.9887 13.608 15.0592 13.2682C15.3135 12.069 16.2195 11.2373 17.52 10.9913C17.9423 10.9095 18.9263 10.9402 19.3403 11.0422L19.3395 11.043ZM13.707 12.0472L13.7145 13.0275H10.5893V21.9067H8.37825V13.0275H5.2575V12.0668C5.2575 11.5313 5.2695 11.0865 5.2845 11.0745C5.2965 11.0588 7.19475 11.0513 9.4995 11.055L13.695 11.067L13.707 12.0472Z" fill="#626262"/>
</svg>

<svg width="24" height="24" viewBox="0 0 24 24" fill="none" xmlns="http://www.w3.org/2000/svg"><path d="M0 12v12h24V0H0v12Zm19.34-.957c.61.152 1.073.426 1.503.867.22.234.547.664.575.77.007.031-1.035.73-1.668 1.12-.023.016-.117-.081-.22-.234-.308-.45-.632-.644-1.128-.68-.727-.047-1.196.333-1.192.97a.945.945 0 0 0 .101.449c.161.332.462.53 1.391.934 1.719.737 2.453 1.226 2.91 1.917.512.774.625 2.008.281 2.93-.382.996-1.328 1.675-2.656 1.898-.41.074-1.387.062-1.829-.02-.964-.171-1.879-.648-2.441-1.273-.223-.242-.652-.879-.625-.922.012-.015.11-.078.22-.14.109-.064.51-.298.89-.517l.692-.402.145.215c.203.308.644.73.91.87.766.407 1.816.348 2.336-.117a.876.876 0 0 0 .313-.718c0-.277-.035-.402-.18-.61-.188-.265-.566-.492-1.648-.96-1.239-.536-1.774-.864-2.258-1.391a3.177 3.177 0 0 1-.66-1.2c-.09-.339-.113-1.191-.043-1.53.255-1.2 1.16-2.032 2.461-2.278.422-.082 1.406-.05 1.82.051v.001Zm-5.633 1.004.007.98H10.59v8.88H8.38v-8.88H5.257v-.96c0-.536.011-.98.027-.992.011-.016 1.91-.024 4.214-.02l4.196.012.012.98Z" fill="#626262"/></svg>
